icons/1_Primary/Teleport.svg

<svg width="1024" height="1024" fill="none" xmlns="http://www.w3.org/2000/svg"><g clip-path="url(#a)"><path d="M512 1024c282.77 0 512-229.23 512-512S794.77 0 512 0 0 229.23 0 512s229.23 512 512 512Z" fill="#BD9AFF"/><path d="m771.3 589.11-53.23-45.32 1-6.16a194.091 194.091 0 0 0 1.48-25.57c0-10.65-.55-21.59-2.46-31.71l53.23-45.27 1.18-1a9.83 9.83 0 0 0 2.07-11c-10.87-32.78-29.62-64-52.69-89.86-3.25-3.71-7.87-5.05-12.19-3.18l-67.09 22.91-5.6-4.33a208.694 208.694 0 0 0-49.8-27.39L573.92 253l-.39-1.41a11.157 11.157 0 0 0-8.85-7.39 269 269 0 0 0-105.33 0 11.144 11.144 0 0 0-6.003 2.948A11.145 11.145 0 0 0 450.11 253l-13.29 68.2-6 2.41a194.989 194.989 0 0 0-49.37 29.3L314.35 330l-1.48-.48a10.605 10.605 0 0 0-10.76 3.69c-23.11 25.88-41.81 57.09-52.66 89.87a9.778 9.778 0 0 0 3.25 12l53.23 45.29-1 6.14a194.459 194.459 0 0 0-1.46 25.55 174.505 174.505 0 0 0 2.46 31.73l-53.21 45.32-1.18 1a9.844 9.844 0 0 0-2.07 11c10.85 32.8 29.57 64 52.66 89.81 3.28 3.73 7.89 5.07 12.22 3.21l67.06-22.93 4.89 3.94a201.776 201.776 0 0 0 50.5 27.78l13.29 68.25.36 1.41a11.184 11.184 0 0 0 8.87 7.39 277.257 277.257 0 0 0 105.35 0 11.19 11.19 0 0 0 9.24-8.8l13.31-68.25 6.64-2.68a204.63 204.63 0 0 0 48.73-29l67.06 22.93 1.46.5c3.89 1 7.85-.39 10.76-3.71 23.09-25.84 41.81-57 52.66-89.81a9.784 9.784 0 0 0-3.23-12.04ZM512 671.75c-88.4 0-160.06-71.52-160.06-159.74 0-88.22 71.6-159.74 160.06-159.75 88.42 0 160.07 71.53 160.07 159.74 0 88.21-71.67 159.75-160.07 159.75ZM410.7 442.26h202.6v47.55h-77.19V604h-48.22V489.81H410.7v-47.55Z" fill="#fff"/></g><defs><clipPath id="a"><path fill="#fff" d="M0 0h1024v1024H0z"/></clipPath></defs></svg>

<svg width="1024" height="1024" viewBox="0 0 1024 1024" fill="none" xmlns="http://www.w3.org/2000/svg">
<g clip-path="url(#clip0_2_3612)">
<path d="M512 1024C794.77 1024 1024 794.77 1024 512C1024 229.23 794.77 0 512 0C229.23 0 0 229.23 0 512C0 794.77 229.23 1024 512 1024Z" fill="#BD9AFF"/>
<path d="M771.3 589.11L718.07 543.79L719.07 537.63C720.126 529.148 720.62 520.607 720.55 512.06C720.55 501.41 720 490.47 718.09 480.35L771.32 435.08L772.5 434.08C773.923 432.675 774.884 430.869 775.254 428.903C775.623 426.938 775.385 424.906 774.57 423.08C763.7 390.3 744.95 359.08 721.88 333.22C718.63 329.51 714.01 328.17 709.69 330.04L642.6 352.95L637 348.62C621.727 337.262 604.971 328.046 587.2 321.23L573.92 253L573.53 251.59C572.868 249.669 571.694 247.965 570.134 246.662C568.575 245.36 566.688 244.508 564.68 244.2C529.913 237.259 494.117 237.259 459.35 244.2C457.094 244.545 454.999 245.574 453.347 247.148C451.694 248.721 450.565 250.764 450.11 253L436.82 321.2L430.82 323.61C413.008 330.887 396.371 340.761 381.45 352.91L314.35 330L312.87 329.52C310.911 329.049 308.859 329.146 306.953 329.799C305.047 330.453 303.367 331.636 302.11 333.21C279 359.09 260.3 390.3 249.45 423.08C248.516 425.147 248.33 427.474 248.923 429.663C249.516 431.852 250.851 433.767 252.7 435.08L305.93 480.37L304.93 486.51C303.883 494.985 303.395 503.52 303.47 512.06C303.322 522.689 304.145 533.31 305.93 543.79L252.72 589.11L251.54 590.11C250.119 591.517 249.16 593.323 248.791 595.287C248.421 597.252 248.658 599.283 249.47 601.11C260.32 633.91 279.04 665.11 302.13 690.92C305.41 694.65 310.02 695.99 314.35 694.13L381.41 671.2L386.3 675.14C401.717 686.769 418.724 696.124 436.8 702.92L450.09 771.17L450.45 772.58C451.117 774.502 452.295 776.205 453.858 777.507C455.421 778.809 457.309 779.661 459.32 779.97C494.114 786.703 529.876 786.703 564.67 779.97C566.923 779.619 569.016 778.589 570.667 777.016C572.319 775.443 573.45 773.404 573.91 771.17L587.22 702.92L593.86 700.24C611.371 692.882 627.771 683.121 642.59 671.24L709.65 694.17L711.11 694.67C715 695.67 718.96 694.28 721.87 690.96C744.96 665.12 763.68 633.96 774.53 601.15C775.476 599.081 775.671 596.746 775.082 594.549C774.492 592.351 773.155 590.428 771.3 589.11ZM512 671.75C423.6 671.75 351.94 600.23 351.94 512.01C351.94 423.79 423.54 352.27 512 352.26C600.42 352.26 672.07 423.79 672.07 512C672.07 600.21 600.4 671.75 512 671.75ZM410.7 442.26H613.3V489.81H536.11V604H487.89V489.81H410.7V442.26Z" fill="white"/>
</g>
<defs>
<clipPath id="clip0_2_3612">
<rect width="1024" height="1024" fill="white"/>
</clipPath>
</defs>
</svg>
